F[BALLADE
CUT[Heimkehr des Ehemannes
    Bie vrie ischt auf der Pattlar aut,]
CNR[ho, ho, ho!]
REG[Suedosteuropa, Jugoslawien, Gottschee, Lichtenbach]
SRC[1, S. 97
    1911 aufgezeichnet]
KEY[Q0011A 08  C 2/2]
MEL[-5_  1_1_1_2_  -7_-6_-5__
    -7__1__  2__.
    1_  3_3_3_4_  3_2_1__
    3__2__  11-7-71_ //] >>
FCT[Ballade, Ehe, Heimkehr]
CMT[Grundton in der zweigestrichenen Oktave, 2. und 4. Zeile = Refrain
    auf sinnfreie Silben.]
